X: 27648
T: Morag Hutton's
R: strathspey
M: 4/4
K: Gmajor
G2DC B,G,B,D|GB (3ABc B<GGF|EGcE DGBG|F<AAG (3FGA (3DEF|
G2DC B,G,B,D|GB (3ABc B<GGF|EGce d<BGD|1 (3EFG (3FGA B<GGD:|2 (3EFG (3FGA B<GGB||
efgf e<BB2|EFGA BABe|gef^d efge|dBGB (3cBA AB|
G2DC B,G,B,D|GB (3ABc B<GGF|EGce d<Bdg|1 fd (3cBA B<GGB:|2 fd (3cBA B<GGD||

